source/img/third-step.svg

<svg width="158" height="90" viewBox="0 0 158 90" fill="none" xmlns="http://www.w3.org/2000/svg">
<mask id="mask0" mask-type="alpha" maskUnits="userSpaceOnUse" x="50" y="0" width="90" height="90">
<path d="M138.944 45.1138C142.898 59.6783 135.456 69.1568 121.502 80.4847C116.386 84.8772 101.874 92.7374 84.7582 89.0384C63.363 84.4148 71.9677 74.474 56.6189 60.603C41.2702 46.7321 55.2236 13.9042 71.9677 6.73756C88.7119 -0.429085 108.247 -3.89682 121.502 6.73756C134.758 17.3719 134.991 30.5493 138.944 45.1138Z" fill="#F4F9FC"/>
</mask>
<g mask="url(#mask0)">
<path d="M138.944 45.1138C142.898 59.6783 135.456 69.1568 121.502 80.4847C116.386 84.8772 101.874 92.7374 84.7582 89.0384C63.363 84.4148 71.9677 74.474 56.6189 60.603C41.2702 46.7321 55.2236 13.9042 71.9677 6.73756C88.7119 -0.429085 108.247 -3.89682 121.502 6.73756C134.758 17.3719 134.991 30.5493 138.944 45.1138Z" fill="#F4FBFF"/>
</g>
<mask id="mask1" mask-type="alpha" maskUnits="userSpaceOnUse" x="32" y="0" width="90" height="90">
<path d="M120.944 45.1138C124.898 59.6783 117.456 69.1568 103.502 80.4847C98.3861 84.8772 83.8745 92.7374 66.7582 89.0384C45.363 84.4148 53.9677 74.474 38.6189 60.603C23.2702 46.7321 37.2236 13.9042 53.9677 6.73756C70.7119 -0.429085 90.2467 -3.89682 103.502 6.73756C116.758 17.3719 116.991 30.5493 120.944 45.1138Z" fill="#F4F9FC"/>
</mask>
<g mask="url(#mask1)">
<path d="M120.944 45.1138C124.898 59.6783 117.456 69.1568 103.502 80.4847C98.3861 84.8772 83.8745 92.7374 66.7582 89.0384C45.363 84.4148 53.9677 74.474 38.6189 60.603C23.2702 46.7321 37.2236 13.9042 53.9677 6.73756C70.7119 -0.429085 90.2467 -3.89682 103.502 6.73756C116.758 17.3719 116.991 30.5493 120.944 45.1138Z" fill="#F4FBFF"/>
</g>
<path d="M113.457 47.707C112.381 47.707 111.843 47.2917 111.843 46.4609C111.843 45.7057 112.117 44.9977 112.664 44.3369C113.646 43.1475 114.41 42.5716 114.958 42.6094H128.042C128.873 42.6094 129.288 42.987 129.288 43.7422C129.288 44.5352 129.014 45.262 128.467 45.9229C127.504 47.1123 126.673 47.707 125.975 47.707H113.457ZM128.25 60.5078C127.42 60.5078 127.004 59.9603 127.004 58.8652C127.004 57.6569 127.524 56.7507 128.562 56.1465L148.245 44.6768L128.024 32.9238C127.363 32.5462 127.033 32.1592 127.033 31.7627C127.033 31.3473 127.099 31.0264 127.231 30.7998C127.363 30.5544 127.542 30.3372 127.769 30.1484C128.222 29.7708 128.751 29.582 129.355 29.582C129.959 29.582 130.488 29.7142 130.941 29.9785L153.795 42.5811C155.325 43.4873 156.089 44.1953 156.089 44.7051C156.089 45.2148 155.513 45.7718 154.362 46.376L129.242 60.2246C128.883 60.4134 128.553 60.5078 128.25 60.5078Z" fill="#AAF0D1"/>
<path d="M17.1768 73.3809C13.2412 73.3809 10.2451 72.1621 8.18848 69.7246C6.15723 67.2617 5.1416 63.6689 5.1416 58.9463C5.1416 58.9463 5.1416 58.5273 5.1416 57.6895C5.1416 54.6172 5.66211 51.0752 6.70312 47.0635C7.76953 43.0518 9.01367 39.4717 10.4355 36.3232C11.8828 33.1494 13.5586 30.1914 15.4629 27.4492C17.3926 24.707 19.5 22.3203 21.7852 20.2891C26.7109 15.9473 31.8018 13.7764 37.0576 13.7764C42.6182 13.7764 46.2236 16.4932 47.874 21.9268C48.4326 23.7549 48.7119 25.4941 48.7119 27.1445C48.7119 28.7949 48.623 30.6865 48.4453 32.8193C48.293 34.9268 47.7725 37.6943 46.8838 41.1221C45.9951 44.5244 44.8271 47.7998 43.3799 50.9482C41.9326 54.0713 40.2568 57.0039 38.3525 59.7461C36.4736 62.4883 34.4043 64.875 32.1445 66.9062C27.2949 71.2227 22.3057 73.3809 17.1768 73.3809ZM41.1328 25.0879C41.1328 20.8477 39.5205 18.7275 36.2959 18.7275C33.249 18.7275 29.8848 21.0508 26.2031 25.6973C22.7754 30.0645 19.7793 35.498 17.2148 41.998C14.5488 48.752 13.0127 55.0107 12.6064 60.7744C12.4541 63.1611 12.7969 65.04 13.6348 66.4111C14.4727 67.7568 15.6152 68.4297 17.0625 68.4297C18.5352 68.4297 19.9189 68.0615 21.2139 67.3252C22.5088 66.5635 23.8037 65.5225 25.0986 64.2021C26.4189 62.8818 27.7012 61.333 28.9453 59.5557C30.1895 57.7529 31.3828 55.8105 32.5254 53.7285C33.668 51.6211 34.7217 49.4121 35.6865 47.1016C36.6768 44.791 37.5527 42.4551 38.3145 40.0938C40.1934 34.1777 41.1328 29.4297 41.1328 25.8496V25.0879ZM66.1934 50.3389C65.2031 50.3389 64.708 49.958 64.708 49.1963C64.708 47.4189 65.3301 45.9082 66.5742 44.6641C66.9805 44.2578 67.7676 43.8896 68.9355 43.5596C70.1289 43.2041 71.6523 42.4805 73.5059 41.3887C75.3848 40.2715 77.0859 38.9258 78.6094 37.3516C82.0371 33.7715 83.751 29.6963 83.751 25.126C83.751 23.1455 83.2559 21.5967 82.2656 20.4795C81.2754 19.3369 80.0186 18.7656 78.4951 18.7656C76.9717 18.7656 75.5752 19.0957 74.3057 19.7559C73.0615 20.3906 71.9697 21.2031 71.0303 22.1934C69.0244 24.2754 68.0215 26.4463 68.0215 28.7061C68.0215 30.8389 68.6309 32.1592 69.8496 32.667C70.3574 32.8955 70.6113 33.2256 70.6113 33.6572C70.6113 34.5713 70.167 35.4092 69.2783 36.1709C67.6279 37.5928 66.2314 38.3037 65.0889 38.3037C63.9463 38.3037 63.0195 38.126 62.3086 37.7705C61.5977 37.415 60.9883 36.9199 60.4805 36.2852C59.4902 34.9648 58.9951 33.4541 58.9951 31.7529C58.9951 30.0518 59.2236 28.5283 59.6807 27.1826C60.1377 25.8369 60.7725 24.5293 61.585 23.2598C62.4229 21.9648 63.4258 20.7461 64.5938 19.6035C65.7871 18.4609 67.1074 17.4453 68.5547 16.5566C71.6523 14.6777 74.6738 13.7383 77.6191 13.7383C80.5898 13.7383 82.9004 14.1191 84.5508 14.8809C86.2266 15.6426 87.5723 16.6328 88.5879 17.8516C90.4668 20.1113 91.4062 23.082 91.4062 26.7637C91.4062 32.7559 88.6641 38.3545 83.1797 43.5596C81.1484 45.4893 79.1934 46.9238 77.3145 47.8633C79.498 48.5234 80.9961 50.3262 81.8086 53.2715C82.0625 54.1855 82.1895 55.2393 82.1895 56.4326C82.1895 57.6006 81.9736 58.8701 81.542 60.2412C81.1104 61.6123 80.501 62.9453 79.7139 64.2402C78.9268 65.5098 77.9619 66.7031 76.8193 67.8203C75.6768 68.9121 74.3945 69.877 72.9727 70.7148C69.9004 72.4922 66.5742 73.3809 62.9941 73.3809C59.3125 73.3809 56.4434 72.416 54.3867 70.4863C52.6094 68.8359 51.7207 66.8301 51.7207 64.4688C51.7207 62.6152 52.3047 60.9141 53.4727 59.3652C54.8691 57.5879 56.6846 56.6992 58.9189 56.6992C60.1631 56.6992 61.0518 56.9658 61.585 57.499C62.5244 58.4385 62.7529 59.1875 62.2705 59.7461C61.8135 60.2793 61.4072 60.7744 61.0518 61.2314C60.7217 61.6631 60.4424 62.1074 60.2139 62.5645C59.7568 63.4277 59.5283 64.2148 59.5283 64.9258C59.5283 65.6367 59.5918 66.208 59.7188 66.6396C59.8457 67.0459 60.0488 67.4141 60.3281 67.7441C60.9883 68.4805 62.0039 68.8486 63.375 68.8486C64.7461 68.8486 66.0791 68.417 67.374 67.5537C68.6943 66.6904 69.8496 65.5859 70.8398 64.2402C72.9473 61.3711 74.001 58.2861 74.001 54.9854C74.001 51.6592 72.6172 49.9961 69.8496 49.9961L66.1934 50.3389Z" fill="#FF689E"/>
</svg>

<svg width="158" height="90" fill="none" xmlns="http://www.w3.org/2000/svg"><mask id="a" maskUnits="userSpaceOnUse" x="50" y="0" width="90" height="90"><path d="M138.944 45.114c3.954 14.564-3.488 24.043-17.442 35.37-5.116 4.393-19.628 12.253-36.744 8.554-21.395-4.623-12.79-14.564-28.14-28.435-15.348-13.87-1.394-46.699 15.35-53.865 16.744-7.167 36.279-10.635 49.534 0 13.256 10.634 13.489 23.811 17.442 38.376z" fill="#F4F9FC"/></mask><g mask="url(#a)"><path d="M138.944 45.114c3.954 14.564-3.488 24.043-17.442 35.37-5.116 4.393-19.628 12.253-36.744 8.554-21.395-4.623-12.79-14.564-28.14-28.435-15.348-13.87-1.394-46.699 15.35-53.865 16.744-7.167 36.279-10.635 49.534 0 13.256 10.634 13.489 23.811 17.442 38.376z" fill="#F4FBFF"/></g><mask id="b" maskUnits="userSpaceOnUse" x="32" y="0" width="90" height="90"><path d="M120.944 45.114c3.954 14.564-3.488 24.043-17.442 35.37-5.116 4.393-19.627 12.253-36.744 8.554-21.395-4.623-12.79-14.564-28.14-28.435-15.348-13.87-1.394-46.699 15.35-53.865 16.744-7.167 36.279-10.635 49.534 0 13.256 10.634 13.489 23.811 17.442 38.376z" fill="#F4F9FC"/></mask><g mask="url(#b)"><path d="M120.944 45.114c3.954 14.564-3.488 24.043-17.442 35.37-5.116 4.393-19.627 12.253-36.744 8.554-21.395-4.623-12.79-14.564-28.14-28.435-15.348-13.87-1.394-46.699 15.35-53.865 16.744-7.167 36.279-10.635 49.534 0 13.256 10.634 13.489 23.811 17.442 38.376z" fill="#F4FBFF"/></g><path d="M113.457 47.707c-1.076 0-1.614-.415-1.614-1.246 0-.755.274-1.463.821-2.124.982-1.19 1.746-1.765 2.294-1.728h13.084c.831 0 1.246.378 1.246 1.133 0 .793-.274 1.52-.821 2.18-.963 1.19-1.794 1.785-2.492 1.785h-12.518zm14.793 12.8c-.83 0-1.246-.547-1.246-1.642 0-1.208.52-2.114 1.558-2.718l19.683-11.47-20.221-11.753c-.661-.378-.991-.765-.991-1.161 0-.416.066-.737.198-.963a2.402 2.402 0 012.124-1.218c.604 0 1.133.132 1.586.396l22.854 12.603c1.53.906 2.294 1.614 2.294 2.124s-.576 1.067-1.727 1.671l-25.12 13.849c-.359.188-.689.283-.992.283z" fill="#AAF0D1"/><path d="M17.177 73.38c-3.936 0-6.932-1.218-8.989-3.655-2.03-2.463-3.046-6.056-3.046-10.779V57.69c0-3.073.52-6.615 1.561-10.627 1.067-4.011 2.31-7.591 3.732-10.74a56.916 56.916 0 015.028-8.874c1.93-2.742 4.037-5.129 6.322-7.16 4.926-4.342 10.017-6.513 15.273-6.513 5.56 0 9.166 2.717 10.816 8.15.559 1.829.838 3.568.838 5.219 0 1.65-.089 3.541-.267 5.674-.152 2.108-.672 4.875-1.561 8.303a59.454 59.454 0 01-3.504 9.826 58.536 58.536 0 01-5.028 8.798c-1.878 2.742-3.948 5.129-6.207 7.16-4.85 4.317-9.84 6.475-14.968 6.475zm23.956-48.292c0-4.24-1.613-6.36-4.837-6.36-3.047 0-6.411 2.323-10.093 6.97-3.428 4.366-6.424 9.8-8.988 16.3-2.666 6.754-4.202 13.013-4.609 18.776-.152 2.387.19 4.266 1.029 5.637.838 1.346 1.98 2.019 3.428 2.019a8.265 8.265 0 004.15-1.105c1.296-.761 2.59-1.803 3.886-3.123 1.32-1.32 2.602-2.869 3.846-4.646a67.01 67.01 0 003.58-5.828 72.519 72.519 0 003.162-6.626 80.61 80.61 0 002.628-7.008c1.878-5.916 2.818-10.664 2.818-14.244v-.762zm25.06 25.25c-.99 0-1.485-.38-1.485-1.142 0-1.777.622-3.288 1.866-4.532.407-.406 1.194-.774 2.362-1.104 1.193-.356 2.716-1.08 4.57-2.171a24.49 24.49 0 005.103-4.037c3.428-3.58 5.142-7.656 5.142-12.226 0-1.98-.495-3.53-1.485-4.646-.99-1.143-2.247-1.714-3.77-1.714-1.524 0-2.92.33-4.19.99a11.98 11.98 0 00-3.276 2.437c-2.006 2.082-3.008 4.253-3.008 6.513 0 2.133.609 3.453 1.828 3.961.507.228.761.559.761.99 0 .914-.444 1.752-1.333 2.514-1.65 1.422-3.047 2.133-4.19 2.133-1.142 0-2.068-.178-2.78-.534a5.429 5.429 0 01-1.828-1.485c-.99-1.32-1.485-2.83-1.485-4.532 0-1.701.229-3.225.686-4.57a18.013 18.013 0 011.904-3.923 21.31 21.31 0 013.009-3.657 23.44 23.44 0 013.96-3.046c3.098-1.88 6.12-2.819 9.065-2.819 2.97 0 5.281.381 6.932 1.143 1.676.762 3.021 1.752 4.037 2.97 1.879 2.26 2.818 5.231 2.818 8.913 0 5.992-2.742 11.59-8.226 16.796-2.032 1.93-3.987 3.364-5.866 4.303 2.184.66 3.682 2.463 4.495 5.409.254.913.38 1.967.38 3.16 0 1.169-.215 2.438-.647 3.81a18.217 18.217 0 01-1.828 3.998 19.044 19.044 0 01-2.895 3.58 20.895 20.895 0 01-3.846 2.895c-3.073 1.777-6.399 2.666-9.979 2.666-3.681 0-6.55-.965-8.607-2.895-1.778-1.65-2.666-3.656-2.666-6.017 0-1.854.584-3.555 1.752-5.104 1.396-1.777 3.212-2.666 5.446-2.666 1.244 0 2.133.267 2.666.8.94.94 1.168 1.688.685 2.247a40.641 40.641 0 00-1.218 1.485 8.32 8.32 0 00-.838 1.334c-.457.863-.686 1.65-.686 2.36 0 .712.064 1.283.19 1.715.128.406.33.774.61 1.104.66.737 1.676 1.105 3.047 1.105 1.371 0 2.704-.432 3.999-1.295 1.32-.864 2.476-1.968 3.466-3.314 2.107-2.869 3.16-5.954 3.16-9.255 0-3.326-1.384-4.989-4.151-4.989l-3.657.343z" fill="#FF689E"/></svg>
